img/logos/mocha.svg

<?xml version="1.0" encoding="UTF-8" standalone="no" ?>
<svg width="256px" height="256px" viewBox="0 0 256 256" version="1.1" xmlns="http://www.w3.org/2000/svg" xmlns:xlink="http://www.w3.org/1999/xlink" preserveAspectRatio="xMinYMin meet">
    <g>
        <circle fill="#8A6343" cx="128" cy="128" r="128"></circle>
        <path d="M43.2489412,118.181647 L45.5378824,118.181647 L45.5378824,124.506353 L45.6583529,124.506353 C45.8992953,123.542583 46.3209382,122.629024 46.9232941,121.765647 C47.5256501,120.90227 48.2585055,120.149337 49.1218824,119.506824 C49.9852592,118.864311 50.9490143,118.362355 52.0131765,118.000941 C53.0773387,117.639528 54.1916805,117.458824 55.3562353,117.458824 C56.8420466,117.458824 58.1270534,117.649567 59.2112941,118.031059 C60.2955348,118.412551 61.2191334,118.914507 61.9821176,119.536941 C62.7451019,120.159376 63.3474488,120.862114 63.7891765,121.645176 C64.2309042,122.428239 64.5320776,123.221329 64.6927059,124.024471 L64.8131765,124.024471 C65.7367889,121.855989 66.9716001,120.219613 68.5176471,119.115294 C70.063694,118.010975 72.1016344,117.458824 74.6315294,117.458824 C76.0370266,117.458824 77.3320725,117.669645 78.5167059,118.091294 C79.7013393,118.512943 80.725329,119.155447 81.5887059,120.018824 C82.4520827,120.8822 83.1247035,121.976464 83.6065882,123.301647 C84.088473,124.62683 84.3294118,126.192932 84.3294118,128 L84.3294118,149.142588 L82.0404706,149.142588 L82.0404706,127.939765 C82.0404706,125.972069 81.7392971,124.426045 81.1369412,123.301647 C80.5345852,122.177249 79.821808,121.323924 78.9985882,120.741647 C78.1753684,120.15937 77.352161,119.797961 76.5289412,119.657412 C75.7057214,119.516862 75.0732571,119.446588 74.6315294,119.446588 C73.2260322,119.446588 71.9309863,119.687527 70.7463529,120.169412 C69.5617196,120.651297 68.5377298,121.374113 67.6743529,122.337882 C66.8109761,123.301652 66.1383554,124.496307 65.6564706,125.921882 C65.1745858,127.347458 64.9336471,128.983834 64.9336471,130.831059 L64.9336471,149.142588 L62.6447059,149.142588 L62.6447059,127.939765 C62.6447059,126.012226 62.3535715,124.476241 61.7712941,123.331765 C61.1890167,122.187288 60.5063569,121.333964 59.7232941,120.771765 C58.9402314,120.209566 58.1371022,119.848158 57.3138824,119.687529 C56.4906626,119.526901 55.8381201,119.446588 55.3562353,119.446588 C54.2719946,119.446588 53.1476137,119.667449 51.9830588,120.109176 C50.818504,120.550904 49.7543578,121.233564 48.7905882,122.157176 C47.8268187,123.080789 47.0437677,124.265405 46.4414118,125.711059 C45.8390558,127.156713 45.5378824,128.863363 45.5378824,130.831059 L45.5378824,149.142588 L43.2489412,149.142588 L43.2489412,118.181647 Z M89.6903529,133.662118 C89.6903529,131.453479 90.0015655,129.375382 90.624,127.427765 C91.2464345,125.480147 92.159994,123.763458 93.3647059,122.277647 C94.5694178,120.791836 96.0552069,119.617259 97.8221176,118.753882 C99.5890284,117.890505 101.61693,117.458824 103.905882,117.458824 C106.194835,117.458824 108.222736,117.890505 109.989647,118.753882 C111.756558,119.617259 113.242347,120.791836 114.447059,122.277647 C115.651771,123.763458 116.56533,125.480147 117.187765,127.427765 C117.810199,129.375382 118.121412,131.453479 118.121412,133.662118 C118.121412,135.870756 117.810199,137.958892 117.187765,139.926588 C116.56533,141.894284 115.651771,143.610973 114.447059,145.076706 C113.242347,146.542439 111.756558,147.706976 109.989647,148.570353 C108.222736,149.43373 106.194835,149.865412 103.905882,149.865412 C101.61693,149.865412 99.5890284,149.43373 97.8221176,148.570353 C96.0552069,147.706976 94.5694178,146.542439 93.3647059,145.076706 C92.159994,143.610973 91.2464345,141.894284 90.624,139.926588 C90.0015655,137.958892 89.6903529,135.870756 89.6903529,133.662118 L89.6903529,133.662118 Z M91.9792941,133.662118 C91.9792941,135.509343 92.2403111,137.286266 92.7623529,138.992941 C93.2843948,140.699616 94.0473675,142.215523 95.0512941,143.540706 C96.0552207,144.865889 97.300071,145.919996 98.7858824,146.703059 C100.271694,147.486122 101.978343,147.877647 103.905882,147.877647 C105.833421,147.877647 107.540071,147.486122 109.025882,146.703059 C110.511694,145.919996 111.756544,144.865889 112.760471,143.540706 C113.764397,142.215523 114.52737,140.699616 115.049412,138.992941 C115.571454,137.286266 115.832471,135.509343 115.832471,133.662118 C115.832471,131.814893 115.571454,130.037969 115.049412,128.331294 C114.52737,126.624619 113.764397,125.108713 112.760471,123.783529 C111.756544,122.458346 110.511694,121.404239 109.025882,120.621176 C107.540071,119.838114 105.833421,119.446588 103.905882,119.446588 C101.978343,119.446588 100.271694,119.838114 98.7858824,120.621176 C97.300071,121.404239 96.0552207,122.458346 95.0512941,123.783529 C94.0473675,125.108713 93.2843948,126.624619 92.7623529,128.331294 C92.2403111,130.037969 91.9792941,131.814893 91.9792941,133.662118 L91.9792941,133.662118 Z M146.793412,127.759059 C146.672941,126.393719 146.321572,125.189025 145.739294,124.144941 C145.157017,123.100858 144.404083,122.237494 143.480471,121.554824 C142.556858,120.872153 141.482673,120.350119 140.257882,119.988706 C139.033092,119.627292 137.717968,119.446588 136.312471,119.446588 C134.384932,119.446588 132.678282,119.838114 131.192471,120.621176 C129.706659,121.404239 128.461809,122.448307 127.457882,123.753412 C126.453956,125.058516 125.690983,126.544305 125.168941,128.210824 C124.646899,129.877342 124.385882,131.59403 124.385882,133.360941 C124.385882,135.449108 124.626821,137.376619 125.108706,139.143529 C125.590591,140.91044 126.333485,142.446425 127.337412,143.751529 C128.341338,145.056634 129.586189,146.070585 131.072,146.793412 C132.557811,147.516239 134.304617,147.877647 136.312471,147.877647 C137.758125,147.877647 139.093327,147.636708 140.318118,147.154824 C141.542908,146.672939 142.627133,146.010357 143.570824,145.167059 C144.514515,144.32376 145.287526,143.30981 145.889882,142.125176 C146.492238,140.940543 146.893803,139.645497 147.094588,138.24 L149.383529,138.24 C149.142587,140.087225 148.640631,141.73364 147.877647,143.179294 C147.114663,144.624948 146.150908,145.839681 144.986353,146.823529 C143.821798,147.807377 142.496635,148.560311 141.010824,149.082353 C139.525012,149.604395 137.95891,149.865412 136.312471,149.865412 C133.782576,149.865412 131.624166,149.413652 129.837176,148.510118 C128.050187,147.606584 126.584476,146.391851 125.44,144.865882 C124.295524,143.339914 123.452238,141.583069 122.910118,139.595294 C122.367997,137.607519 122.096941,135.529423 122.096941,133.360941 C122.096941,131.19246 122.408154,129.14448 123.030588,127.216941 C123.653023,125.289402 124.566582,123.602831 125.771294,122.157176 C126.976006,120.711522 128.461795,119.567063 130.228706,118.723765 C131.995617,117.880466 134.023518,117.458824 136.312471,117.458824 C137.999067,117.458824 139.575208,117.669645 141.040941,118.091294 C142.506674,118.512943 143.811759,119.145408 144.956235,119.988706 C146.100712,120.832004 147.034349,121.90619 147.757176,123.211294 C148.480004,124.516399 148.921725,126.032305 149.082353,127.759059 L146.793412,127.759059 Z M157.033412,106.134588 L157.033412,124.807529 L157.153882,124.807529 C157.555453,123.642975 158.127683,122.608946 158.870588,121.705412 C159.613494,120.801878 160.476858,120.028866 161.460706,119.386353 C162.444554,118.74384 163.518739,118.261962 164.683294,117.940706 C165.847849,117.619449 167.032465,117.458824 168.237176,117.458824 C170.044244,117.458824 171.580229,117.679684 172.845176,118.121412 C174.110124,118.563139 175.144153,119.145408 175.947294,119.868235 C176.750435,120.591062 177.3829,121.404231 177.844706,122.307765 C178.306512,123.211299 178.637803,124.124858 178.838588,125.048471 C179.039374,125.972083 179.159843,126.865564 179.2,127.728941 C179.240157,128.592318 179.260235,129.345252 179.260235,129.987765 L179.260235,149.142588 L176.971294,149.142588 L176.971294,129.566118 C176.971294,128.803133 176.911059,127.839378 176.790588,126.674824 C176.670117,125.510269 176.318748,124.395927 175.736471,123.331765 C175.154193,122.267603 174.270751,121.354043 173.086118,120.591059 C171.901484,119.828075 170.265108,119.446588 168.176941,119.446588 C166.41003,119.446588 164.843928,119.76784 163.478588,120.410353 C162.113248,121.052866 160.948711,121.946347 159.984941,123.090824 C159.021172,124.2353 158.288316,125.60062 157.786353,127.186824 C157.28439,128.773028 157.033412,130.509794 157.033412,132.397176 L157.033412,149.142588 L154.744471,149.142588 L154.744471,106.134588 L157.033412,106.134588 Z M206.546824,142.998588 L206.426353,142.998588 C206.064939,143.922201 205.542905,144.795604 204.860235,145.618824 C204.177565,146.442043 203.344319,147.174899 202.360471,147.817412 C201.376623,148.459925 200.262281,148.961881 199.017412,149.323294 C197.772543,149.684708 196.407223,149.865412 194.921412,149.865412 C191.628533,149.865412 189.078597,149.152635 187.271529,147.727059 C185.464462,146.301483 184.560941,144.102917 184.560941,141.131294 C184.560941,139.324226 184.922349,137.848476 185.645176,136.704 C186.368004,135.559524 187.281563,134.656003 188.385882,133.993412 C189.490202,133.33082 190.714974,132.858982 192.060235,132.577882 C193.405497,132.296783 194.700543,132.096001 195.945412,131.975529 L199.499294,131.674353 C201.145734,131.553882 202.44078,131.363139 203.384471,131.102118 C204.328162,130.841097 205.040939,130.479689 205.522824,130.017882 C206.004708,129.556076 206.305882,128.963768 206.426353,128.240941 C206.546824,127.518114 206.607059,126.614594 206.607059,125.530353 C206.607059,124.687055 206.446433,123.904004 206.125176,123.181176 C205.80392,122.458349 205.301964,121.815846 204.619294,121.253647 C203.936624,120.691448 203.053182,120.249727 201.968941,119.928471 C200.8847,119.607214 199.559537,119.446588 197.993412,119.446588 C195.222574,119.446588 192.983852,120.129248 191.277176,121.494588 C189.570501,122.859928 188.636864,124.927986 188.476235,127.698824 L186.187294,127.698824 C186.347922,124.285473 187.442186,121.725499 189.470118,120.018824 C191.498049,118.312148 194.379275,117.458824 198.113882,117.458824 C201.848489,117.458824 204.56909,118.191679 206.275765,119.657412 C207.98244,121.123145 208.835765,123.040616 208.835765,125.409882 L208.835765,143.420235 C208.835765,143.861963 208.845804,144.303684 208.865882,144.745412 C208.885961,145.187139 208.956235,145.588704 209.076706,145.950118 C209.197177,146.311531 209.397959,146.602666 209.679059,146.823529 C209.960158,147.044393 210.361723,147.154824 210.883765,147.154824 C211.285335,147.154824 211.847526,147.094589 212.570353,146.974118 L212.570353,148.901647 C211.967997,149.062275 211.345572,149.142588 210.703059,149.142588 C209.779446,149.142588 209.046591,149.022119 208.504471,148.781176 C207.96235,148.540234 207.550747,148.218982 207.269647,147.817412 C206.988548,147.415841 206.797804,146.944003 206.697412,146.401882 C206.597019,145.859762 206.546824,145.267454 206.546824,144.624941 L206.546824,142.998588 Z M206.546824,131.553882 C205.984625,132.236552 205.1313,132.698352 203.986824,132.939294 C202.842347,133.180236 201.56738,133.360941 200.161882,133.481412 L196.306824,133.842824 C195.182426,133.963295 194.058045,134.13396 192.933647,134.354824 C191.809249,134.575687 190.795299,134.947135 189.891765,135.469176 C188.988231,135.991218 188.255375,136.703995 187.693176,137.607529 C187.130978,138.511063 186.849882,139.68564 186.849882,141.131294 C186.849882,143.420247 187.572699,145.116857 189.018353,146.221176 C190.464007,147.325496 192.451752,147.877647 194.981647,147.877647 C197.591856,147.877647 199.659914,147.405809 201.185882,146.462118 C202.711851,145.518427 203.876388,144.434202 204.679529,143.209412 C205.482671,141.984621 205.994666,140.800006 206.215529,139.655529 C206.436393,138.511053 206.546824,137.738041 206.546824,137.336471 L206.546824,131.553882 Z" fill="#FFFFFF"></path>
    </g>
</svg>

<svg width="256" height="256" viewBox="0 0 256 256" xmlns="http://www.w3.org/2000/svg" preserveAspectRatio="xMinYMin meet"><circle fill="#8A6343" cx="128" cy="128" r="128"/><path d="M43.25 118.182h2.288v6.324h.12c.24-.963.663-1.877 1.265-2.74.603-.864 1.336-1.617 2.2-2.26.862-.642 1.826-1.144 2.89-1.505 1.064-.36 2.18-.54 3.343-.54 1.486 0 2.77.19 3.855.57 1.086.383 2.01.885 2.772 1.507.763.622 1.365 1.325 1.807 2.108.44.783.742 1.576.903 2.38h.12c.924-2.17 2.16-3.805 3.705-4.91 1.546-1.104 3.584-1.656 6.114-1.656 1.405 0 2.7.21 3.885.63 1.184.423 2.208 1.065 3.072 1.93.862.862 1.535 1.956 2.017 3.282.48 1.325.722 2.89.722 4.698v21.143h-2.29V127.94c0-1.968-.3-3.514-.903-4.638-.602-1.125-1.315-1.978-2.138-2.56-.825-.583-1.648-.944-2.47-1.085-.824-.14-1.457-.21-1.898-.21-1.406 0-2.7.24-3.886.722-1.184.48-2.208 1.204-3.072 2.168-.863.964-1.536 2.158-2.018 3.584-.48 1.425-.722 3.062-.722 4.91v18.31h-2.29V127.94c0-1.928-.29-3.464-.873-4.608-.58-1.145-1.264-1.998-2.047-2.56-.783-.562-1.586-.924-2.41-1.084-.822-.16-1.475-.24-1.957-.24-1.084 0-2.208.22-3.373.66-1.164.443-2.23 1.126-3.192 2.05-.963.923-1.746 2.107-2.35 3.553-.6 1.447-.902 3.153-.902 5.12v18.313h-2.29v-30.96zm46.44 15.48c0-2.21.312-4.287.934-6.234.622-1.948 1.536-3.665 2.74-5.15 1.205-1.486 2.69-2.66 4.458-3.524 1.767-.863 3.795-1.295 6.084-1.295 2.29 0 4.317.43 6.084 1.294 1.767.863 3.252 2.038 4.457 3.524 1.205 1.485 2.118 3.202 2.74 5.15.623 1.947.934 4.025.934 6.234 0 2.21-.31 4.297-.932 6.265-.623 1.967-1.536 3.684-2.74 5.15-1.206 1.465-2.69 2.63-4.458 3.493-1.767.864-3.795 1.295-6.084 1.295-2.29 0-4.317-.43-6.084-1.295-1.767-.863-3.253-2.028-4.457-3.493-1.205-1.466-2.12-3.183-2.74-5.15-.623-1.968-.935-4.056-.935-6.265zm2.29 0c0 1.847.26 3.624.782 5.33.522 1.708 1.285 3.224 2.29 4.55 1.003 1.324 2.248 2.378 3.734 3.16 1.486.784 3.192 1.176 5.12 1.176 1.927 0 3.634-.392 5.12-1.175 1.486-.783 2.73-1.837 3.734-3.162 1.004-1.324 1.767-2.84 2.29-4.547.52-1.707.782-3.484.782-5.33 0-1.848-.26-3.625-.783-5.332-.523-1.705-1.286-3.22-2.29-4.546-1.003-1.326-2.248-2.38-3.734-3.163-1.486-.782-3.193-1.173-5.12-1.173-1.928 0-3.634.39-5.12 1.174-1.486.784-2.73 1.838-3.735 3.164-1.003 1.325-1.766 2.84-2.288 4.547-.522 1.708-.783 3.485-.783 5.332zm54.813-5.903c-.12-1.366-.47-2.57-1.054-3.615-.583-1.044-1.336-1.908-2.26-2.59-.923-.683-1.997-1.205-3.222-1.566-1.225-.363-2.54-.543-3.946-.543-1.927 0-3.634.39-5.12 1.174-1.485.784-2.73 1.828-3.734 3.133-1.004 1.306-1.767 2.79-2.29 4.458-.52 1.667-.782 3.384-.782 5.15 0 2.09.24 4.017.723 5.784.48 1.766 1.223 3.302 2.227 4.608 1.004 1.305 2.25 2.32 3.735 3.04 1.486.724 3.233 1.086 5.24 1.086 1.446 0 2.78-.24 4.006-.723 1.225-.482 2.31-1.145 3.253-1.988.945-.843 1.718-1.857 2.32-3.042.602-1.184 1.004-2.48 1.205-3.885h2.29c-.242 1.847-.744 3.494-1.507 4.94-.763 1.445-1.727 2.66-2.892 3.644-1.164.983-2.49 1.736-3.975 2.258-1.485.522-3.05.783-4.698.783-2.53 0-4.688-.45-6.475-1.355-1.787-.903-3.253-2.118-4.397-3.644-1.144-1.526-1.988-3.283-2.53-5.27-.542-1.988-.813-4.067-.813-6.235s.31-4.216.934-6.143c.623-1.928 1.537-3.614 2.74-5.06 1.206-1.445 2.692-2.59 4.46-3.433 1.766-.844 3.794-1.265 6.082-1.265 1.687 0 3.263.21 4.73.63 1.465.423 2.77 1.055 3.914 1.9 1.145.842 2.078 1.916 2.8 3.22.724 1.306 1.166 2.822 1.326 4.55h-2.29zm10.24-21.625v18.673h.12c.402-1.165.975-2.2 1.718-3.103s1.607-1.676 2.59-2.32c.985-.64 2.06-1.123 3.223-1.444 1.165-.32 2.35-.48 3.554-.48 1.807 0 3.343.22 4.608.66 1.265.443 2.3 1.025 3.102 1.748.803.723 1.436 1.536 1.898 2.44.462.903.793 1.817.994 2.74.2.924.32 1.818.36 2.68.04.864.06 1.617.06 2.26v19.155h-2.29v-19.577c0-.763-.06-1.727-.18-2.89-.12-1.166-.47-2.28-1.054-3.344-.582-1.064-1.465-1.978-2.65-2.74-1.185-.764-2.82-1.145-4.91-1.145-1.766 0-3.332.32-4.697.963-1.367.643-2.53 1.536-3.495 2.68-.964 1.145-1.697 2.51-2.2 4.097-.5 1.586-.752 3.323-.752 5.21v16.746h-2.29v-43.008h2.29zM206.547 143h-.12c-.362.922-.884 1.796-1.567 2.62-.682.822-1.516 1.555-2.5 2.197-.983.643-2.098 1.145-3.343 1.506-1.244.362-2.61.542-4.096.542-3.29 0-5.84-.712-7.648-2.138-1.808-1.426-2.71-3.624-2.71-6.596 0-1.806.36-3.282 1.083-4.426.723-1.144 1.637-2.048 2.74-2.71 1.105-.663 2.33-1.135 3.675-1.416 1.345-.28 2.64-.482 3.885-.602l3.554-.302c1.646-.12 2.94-.31 3.884-.572.944-.26 1.657-.622 2.14-1.084.48-.462.782-1.054.902-1.777.12-.722.18-1.625.18-2.71 0-.843-.16-1.626-.48-2.35-.322-.722-.824-1.364-1.507-1.926-.683-.563-1.567-1.004-2.65-1.326-1.085-.32-2.41-.48-3.977-.48-2.77 0-5.01.68-6.716 2.047-1.706 1.365-2.64 3.433-2.8 6.204h-2.29c.16-3.415 1.255-5.975 3.283-7.68 2.028-1.708 4.91-2.56 8.644-2.56s6.455.732 8.162 2.197c1.706 1.466 2.56 3.384 2.56 5.753v18.01c0 .442.01.884.03 1.325.02.442.09.844.21 1.205.12.362.322.653.603.874.28.22.682.33 1.204.33.4 0 .964-.06 1.686-.18v1.928c-.602.16-1.224.24-1.867.24-.924 0-1.656-.12-2.2-.36-.54-.242-.952-.563-1.233-.965-.28-.4-.472-.873-.573-1.415-.1-.542-.15-1.135-.15-1.777V143zm0-11.446c-.562.683-1.416 1.144-2.56 1.385-1.145.24-2.42.42-3.825.54l-3.855.363c-1.125.12-2.25.29-3.373.512-1.125.22-2.14.592-3.042 1.114-.904.52-1.637 1.234-2.2 2.138-.56.903-.842 2.078-.842 3.523 0 2.29.723 3.987 2.168 5.09 1.446 1.105 3.434 1.658 5.964 1.658 2.61 0 4.678-.472 6.204-1.416 1.526-.944 2.69-2.028 3.494-3.253.803-1.225 1.315-2.41 1.536-3.554.22-1.145.33-1.918.33-2.32v-5.782z" fill="#FFF"/></svg>
